src/assets/advantages/desk-icon.svg

<svg width="60" height="60" viewBox="0 0 60 60" fill="none" xmlns="http://www.w3.org/2000/svg">
<path d="M50.92 44.8479H53.874C55.7088 44.8479 57.1944 43.3455 57.1944 41.4898V20.5378C57.1944 18.6821 55.7088 17.1797 53.874 17.1797H39.9282" stroke="#F2C247" stroke-linecap="round" stroke-linejoin="round"/>
<path d="M27.5476 17.1797H19.2184C17.3664 17.1797 15.8669 18.682 15.8669 20.5375V26.3278H7.55515C4.97076 26.3278 2.87793 28.4271 2.87793 31.0138C2.87793 33.603 4.97325 35.6998 7.55515 35.6998H15.8644V41.4901C15.8644 43.3456 17.3639 44.8479 19.2159 44.8479H39.9283" stroke="#F2C247" stroke-linecap="round" stroke-linejoin="round"/>
<path d="M40.6335 35.1855L45.6389 47.569C45.6389 47.569 45.1305 49.1022 44.2709 51.6776C46.2431 52.8004 47.8788 53.2007 49.1928 53.2208C51.5481 53.2561 53.1519 50.7738 52.2751 48.5358L38.17 12.5533C37.1434 9.93509 35.186 7.81536 32.6931 6.62207C32.6931 6.62207 28.9722 16.6467 35.6182 37.4462C38.5753 36.1422 46.0662 32.7007 46.0662 32.7007" stroke="#F2C247" stroke-linecap="round" stroke-linejoin="round"/>
<path d="M8.27362 31.7419C8.67095 31.7419 8.99305 31.4159 8.99305 31.0138C8.99305 30.6116 8.67095 30.2856 8.27362 30.2856C7.8763 30.2856 7.5542 30.6116 7.5542 31.0138C7.5542 31.4159 7.8763 31.7419 8.27362 31.7419Z" stroke="#F2C247" stroke-linecap="round" stroke-linejoin="round"/>
</svg>

<svg xmlns="http://www.w3.org/2000/svg" width="60" height="60" fill="none" viewBox="0 0 60 60">
    <path stroke="#F2C247" stroke-linecap="round" stroke-linejoin="round" d="M50.92 44.848h2.954c1.835 0 3.32-1.502 3.32-3.358V20.538c0-1.856-1.485-3.358-3.32-3.358H39.928M27.548 17.18h-8.33a3.353 3.353 0 0 0-3.351 3.358v5.79H7.555a4.682 4.682 0 0 0-4.677 4.686A4.682 4.682 0 0 0 7.555 35.7h8.31v5.79c0 1.856 1.499 3.358 3.35 3.358h20.713"/>
    <path stroke="#F2C247" stroke-linecap="round" stroke-linejoin="round" d="M40.633 35.185 45.64 47.57s-.509 1.533-1.368 4.109c1.972 1.122 3.608 1.523 4.922 1.543 2.355.035 3.959-2.447 3.082-4.685L38.17 12.553c-1.027-2.618-2.984-4.738-5.477-5.93 0 0-3.72 10.024 2.925 30.823 2.957-1.304 10.448-4.745 10.448-4.745M8.274 31.742c.397 0 .72-.326.72-.728a.724.724 0 0 0-.72-.728.724.724 0 0 0-.72.728c0 .402.322.728.72.728Z"/>
</svg>
